src/actions/24/gnumeric-component-insert-shaped.svg

<svg xmlns="http://www.w3.org/2000/svg" viewBox="0 0 24 24">
  <defs id="defs3051">
    <style type="text/css" id="current-color-scheme">
      .ColorScheme-Text {
        color:#363636;
      }
      </style>
  </defs>
 <path style="fill:currentColor" 
     d="M 7 4 C 5.3431458 4 4 5.3431 4 7 C 4 8.6569 5.3431458 10 7 10 C 8.3013207 10 9.3969895 9.1584 9.8125 8 L 12.21875 8 C 7.8858053 10.4608 5 14.9142 5 20 L 7 20 C 7 13.6297 12.301188 8.4148 19 8 L 20 8 L 20 6 L 19 6 L 9.8125 6 C 9.3969895 4.8416 8.3013207 4 7 4 z M 7 6 C 7.552285 6 8 6.4477 8 7 C 8 7.5523 7.552285 8 7 8 C 6.4477153 8 6 7.5523 6 7 C 6 6.4477 6.4477153 6 7 6 z "
     class="ColorScheme-Text"
     />
 <path 
     style="fill:#b3b3b3" 
     d="M 18.5 8 C 18.197314 8.014 18.1016 8.02725 18.03125 8.03125 C 11.897043 8.27685 7 13.3055 7 19.5 C 7 19.6672 7.024183 19.8345 7.03125 20 L 18.03125 20 L 19 20 L 20 20 L 20 8 L 18.5 8 z "
     />
</svg>

<svg xmlns="http://www.w3.org/2000/svg" viewBox="0 0 24 24">
    <path d="M7 4a3 3 0 1 0 0 6c1.301 0 2.397-.842 2.813-2h2.406C7.886 10.46 5 14.914 5 20h2c0-6.37 5.301-11.585 12-12h1V6H9.813C9.397 4.842 8.3 4 7 4zm0 2a1 1 0 1 1 0 2 1 1 0 0 1 0-2z" style="fill:currentColor;color:#050505;opacity:.7"/>
    <path d="M18.5 8c-.303.014-.398.027-.469.031C11.897 8.277 7 13.306 7 19.5c0 .167.024.334.031.5H20V8h-1.5z" style="fill:#b3b3b3"/>
</svg>
